X: 20855
T: Johny Monfarleau
R: jig
M: 6/8
K: Dmajor
D|:GGG E2D|GzG EED|GzG G2B|ABA E2E|
ABA EGE|ABA B2B|1 BAG DEF|G z4 D:|
[2 BAG DEF|GzD Gz2|z5D||

